packages/astro-components-stencil/src/icons/report-off.svg

<svg width="24" height="24" viewBox="0 0 24 24" fill="none" xmlns="http://www.w3.org/2000/svg">
<path fill-rule="evenodd" clip-rule="evenodd" d="M2.41 1.58008L1 2.99008L4.64 6.63008L3.29 7.98008C3.11 8.16008 3 8.42008 3 8.68008V15.3101C3 15.5801 3.11 15.8301 3.29 16.0201L7.97 20.7001C8.16 20.8901 8.42 21.0001 8.68 21.0001H15.31C15.58 21.0001 15.83 20.8901 16.02 20.7101L17.37 19.3601L21.01 23.0001L22.42 21.5901L2.41 1.58008ZM12 7.00008C12.55 7.00008 13 7.45008 13 8.00008V9.33008L20.2 16.5301L20.71 16.0201C20.9 15.8301 21 15.5801 21 15.3101V8.68008C21 8.41008 20.89 8.16008 20.71 7.97008L16.03 3.29008C15.84 3.11008 15.58 3.00008 15.32 3.00008H8.68C8.42 3.00008 8.16 3.11008 7.98 3.29008L7.47 3.80008L11.16 7.49008C11.33 7.20008 11.64 7.00008 12 7.00008ZM10.7 16.0001C10.7 16.7201 11.28 17.3001 12 17.3001C12.72 17.3001 13.3 16.7201 13.3 16.0001C13.3 15.2801 12.72 14.7001 12 14.7001C11.28 14.7001 10.7 15.2801 10.7 16.0001Z" fill="black"/>
</svg>

<svg xmlns="http://www.w3.org/2000/svg" viewBox="0 0 24 24"><g xmlns="http://www.w3.org/2000/svg" id="report-off" fill-rule="nonzero">
            <path d="M12 7c.55 0 1 .45 1 1v1.33l7.2 7.2.51-.51a.99.99 0 00.29-.71V8.68c0-.27-.11-.52-.29-.71l-4.68-4.68c-.19-.18-.45-.29-.71-.29H8.68c-.26 0-.52.11-.7.29l-.51.51 3.69 3.69c.17-.29.48-.49.84-.49zM2.41 1.58L1 2.99l3.64 3.64-1.35 1.35c-.18.18-.29.44-.29.7v6.63c0 .27.11.52.29.71l4.68 4.68c.19.19.45.3.71.3h6.63c.27 0 .52-.11.71-.29l1.35-1.35L21.01 23l1.41-1.41L2.41 1.58zM12 17.3c-.72 0-1.3-.58-1.3-1.3 0-.72.58-1.3 1.3-1.3.72 0 1.3.58 1.3 1.3 0 .72-.58 1.3-1.3 1.3z"/>
        </g></svg>
